X: 6
T:The Sunny Banks
M:C
L:1/8
C:from G. Cotter
R:Reel
K:D
B | AFFF d2cA | ((3Bcd) AFG2B | AFFF f2ed | ((3Bcd) AF D3 :|
|: e | fded cAAg | fdef g3e | fed2 cAAA | BdAF D3 :|
